X:1
T:[ID 6v-9 (=6-95)]
T:[ID 6v-9 (=6-95)]
T:Bezeichnung standardisiert: Preussisches Exercitium; Preu\ssische Exersitium 11. In dieser Quelle auch als: Preussischer Exercitium In anderer Quelle: Das preu\ssische Exercitium - Hs \"OVLA E-97/E-149 um 1750 (Anm. S. Wascher);  Preusch - Exertierium - Hs. Arendsee  (Anm. S. Wascher);  Strandideldam oder Lange = Bahn - Hs. Arendsee  (Anm. S. Wascher) \"Ahnlich in anderer Quelle: Rigadoon in C major Henry Purcell Zimmerman-Verzeichnis 653 (Anm. S. Wascher); 49 / Prins georg - Drey\sser 1720 (Anm. S. Wascher); B-Teil: Tanz mir nicht mit meiner Jungfer K\"athen - Valentin Hau\ssmann 1609 (Anm. M. M\"uller);
T:Urheber unbekannt Erstbeleg: um 1750 (Datum in der schriftlichen Quelle) Datum in der hier transkribierten schriftlichen Quelle: 1775
C:Urheber unbekannt
C:Erstbeleg: um 1750 (Datum in der schriftlichen Quelle)
C:Datum in der hier transkribierten schriftlichen Quelle: 1775
L:1/8
M:2/4
K:D
V:1 treble 
V:1
 A | B2 AG | FF/G/ FF | GF/G/ ED/E/ | FDFA | B2 AG | FF/G/ FF | GF/G/ ED/E/ | F3 :: F | dd/e/ dd | %11
 c/B/c/d/ ce | d2 z F | dd/e/ dd | c/B/c/d/ cA/G/ | F3 :| %16

